!!!OTL: Muscatellerlied
!!!ARE: Europa, Mitteleuropa, Deutschland
!!!SCT: A0335A
!!!YEM: Copyright 1995, estate of Helmut Schaffrath.
**kern
*ICvox
*Ivox
*M6/4
*k[b-]
*F:
{4c
=1
2f
4f
2g
4g
=2
2a
4a
2g}
{4cc
=3
2a
4f
2g
4e
=4
2.f
2f}
{4c
=5
2f
4f
2g
4g
=6
2a
4a
2g}
{4cc
=7
2a
4f
2g
4e
=8
2.f
2f}
{4a
=9
2cc
4cc
2g
4g
=10
2a
4a
2g}
{4g
=11
2cc
4cc
2g
4g
=12
2a
4a
2g}
{4cc
=13
2cc
4a
2g
4b-
=14
2a
4g
2f}
==
!!!AGN: Romanze, Ballade, Lied, Trinklied
!! Melodie von A0334 von Boehme in den Tripeltakt gesetzt.
!!!ONB: ESAC (Essen Associative Code) Database: ALTDEU
!!!AMT: compound duple
!!!AIN: vox
!!!EED: Helmut Schaffrath
!!!EEV: 1.0
*-
